X:1
T:Bem Brasil
T:Bem Brasil
T:choro
T:Altamiro Carrilho
T:Form: AABAABCoda
C:Altamiro Carrilho
L:1/8
Q:1/4=74
M:2/4
K:D
V:1 treble nm="Piano" snm="Pno."
V:1
 z/ D/E/=F/ |:S"Bm""^A" F/dc/ B/A/_A/G/- |"Em6" G>F"F#7" z/ CD/ |"Bm" B,/ z/ z z2 |"Amaj7" z4 | %5
"Em" B/gf/ e/d/c/=c/- |"C7" c>B"B7" z/ FG/ |"Em" E/ z/ z z2 | z4 |"Em6" z/ e/f/g/- g/c/d/e/- | %10
"F#7" e/_B/=B/c/ z2 |"Bm" z/ d/e/f/- f/B/c/d/- ||1"Bm" d/F/_B/=B/ z2 || %13
"C#7" z/ B/c/d/- d/_A/_B/=B/- |"C#7" B/=F/^F/_A/ z/ _B=B/ | _B,/=B,/=C/^C/ D/_E/=E/=F/ | %16
 F/G/_A/=A/ _B/=B/=c/^c/ :|2"Bm" d/F/_B/=B/ z2 ||"G" z/ GA/"G7" B/A/G/d/- | %19
"C" d/=cB/"F#7" _B/_AB/ |"B" B z z2 | z4 ||[K:B]"B""^B" Fd z c |"B" z B AG |"D#7" =Ge z d | %25
"D#7" z c BA |"A7" A2 f2 |"G#7" ed c=c |"C#m" cd e z ||"D#7" z/[Q:1/4=52]"^Lento" dc/ B/A/d/A/- | %30
"G#m" A2 G/A/B- |"C#7" B/cB/ A/G/c/G/- |"F#7" GF/G/ A/=A/G/=G/ |"B" Fd z c |"B" z B AG | %35
"D#7" =Ge z d |"D#7" z c BA |"A7" =A2 f2 |"G#7" ed c=c |"C#m" cd e z | %40
"Dmaj7" d2-"Em6" d/c/4d/4c/4B/4A/4c/4- |"Bmaj7" cB/4=c/4^c/"E#other" AG/4=A/4^A/ | %42
"C#m" FE/4=F/4^F/"F#7" DC/4=D/4^D/ |"F#m" (3Ff=f"Fother" (3edg | %44
"Emaj7" d2-"Em6" d/-d/4c/4d/4c/4B/4A/4 | %45
"D#13" (6:4:6=c/^c/=c/B/^c/B/"D#7" (6:4:6A/B/A/"G#7b9"=A/B/A/ |"C#m" GA/B/"F#7" (3cdF | %47
O"B" B z"Bm" F/FF/ |"Fother" =F/FF/"F#7" E^F!D.S.! |[K:D] z4 || %50
[K:B]O"Gmaj7" B2 z/ =d/4B/4=A/4=G/4E/4D/4 |"Gmaj7" E2 z/ =d/4B/4=A/4=G/4E/4D/4 | %52
"Gmaj7" E2 z/ =d/4B/4=A/4=G/4E/4D/4 |"Gmaj7" E2"A#7" =F2 |"Bmaj7" !fermata!F4 |] %55

